X:3
T:Walzer G 5- (wz02152)
S:Hanny Christen. Bd.II  St. Gallen II, GraubÃ¼nden, Tessin. S.361 (wz02152) orig. C
S:BÃ¼ndner Tanzmusik. S.358-366. Ãœberliefert durch J.B. Eberli, Chur (28. Aug. 1950)..
O:Switzerland
%%MIDI program 21
R:Walzer
M:3/4
L:1/8
K:G %%MIDI gchordon
D2 |: "G"Gd BD !>!G2 | "D7"Fd cD !>!F2 | Fd cD FA | "G"Gd BD G2 | Gd BD GB | "D7"Fd cD F2 | 
Fd cD FA |1 "G"G2z2D2 :|2 "G"G2z2 ((3gfe) |: "D7"d2 cD FA | "G"d2 BD GB | "D7"ed cD FA | 
"G"GB dg fe | "D7"d2cD FA | "G"d2BD GB | "D7"ed cD FA |1 "G"G2z2 ((3gfe) :|2 "G"G2z2z2 |] 
% wz02152  
% Nov 22, 2016

